X: 1226
T: Ashby Galop
B: australian traditional tunes wiki
M:2/4
L:1/16
R: Galop
Q: 1/4=100
K:G
V:1 
B|:"G"B2BB B2BB|B2c2 ^c2d2|"C"ggg2 f2e2|"G"d6dd|"D7"d2AA A2d2|
"G"d2BB B2AA|1"D7"A2G2 F2G2|A6AA:|2"D7"G2F2 E2F2|"G"G6A2||
|:"D"A2dd c2d2|f2d2 A2aA|"A7"aAg2 f2e2|ggf2 e2d2|
"D"A2dd c2d2|f2d2 A2aA|"A7"aAg2 f2e2|"D"d4d4:|
% abcbook-tune_id 6342d53a34b5cc5d2c2ea85a


% abcbook-boost 0
% abcbook-tablature 
% abcbook-transpose 
% abcbook-lastupdated 1665324354930
% abcbook-soundfonts 
% abcbook-repeats 1
% NFF Book 2007

